X:1
T:The Great March
L:1/8
M:4/4
I:linebreak $
K:G
V:1 treble 
V:1
 x8 |"G" G2 DG .B2 GB | d>d BG D3 F | GD B,D"C" CB, A,G, |"D7" A,2 A,>B, A,4 | %5
"G" DB/B/ BB"C" Dc/c/ cc |$"G" Dd/d/ dd"C" e3 c |"G" dg ec"D7" A2 F2 |"G" G2 G>G G3 D || x8 | %10
"G" B3 D B3 D | B2 c2 d3 B |"D" A3 D A3 D | A2 B2 c4 |$"G" DB/B/ BB"C" Dc/c/ cc | %15
"G" Dd/d/ dd"C" e3 c |"G" dg ec"D7" A2 F2 |"G" G2 G>G G4 || %18
